X:262
T:Reel 262
M:4/4
K:Dmin
L:1/8
DE|F>D (3DCD A>D (3DCD |E>C (3CCC cGd>c||A>D (3DDD A>G (3EDC |GECE D2:||2DEFG Addc|AGAE D2|A2|cdcB AccB|cdcA GEDE|c>d (3dcd e>d (3cdc |GcAG D2cd|cdcB cBAB|cBcd edcB|Addc dedc|cAGE D2|
